X: 27735
T: Morning Mist, The
R: reel
M: 4/4
K: Dmajor
A2 FD AD~D2|ADFD A,DFA|G2 E=C G,C ~C2|G,=CEC G,CEG|
A2 FD ADFD|ADFD A,DFA|G2EF GBAG|1 FDEC DEFG:|2 FDEC D2FA||
d2 AG FdAG|FD~D2 A,DFA|edBd efed|cAeA fAeA|
d2 AG FGAG|FD~D2 A,DFA|G2EF GBAG|1 FDEC DEFA:|2 FDEC D4||

